T: March Of The Mayomen
M: 4/4
L: 1/8
K: Amix
A2B3/2d/2 e2d3/2e/2|g2A2B3/2A/2 G2|g2a3/2g/2 e2e/2d/2B|
AB/2A/2 G3/2A/2 Bd e2|A2B3/2d/2 e2d3/2e/2|
g2A2B3/2A/2 G2|g2a3/2g/2 e2e/2d/2B|A3/2d/2 B/2e3/2 A4
|:a2g3/2a/2 e3/2f/4e/4 d3/2e/2|g2A2B3/2A/2 G2|
a2g3/2a/2 e2e/2d/2B|AB/2A/2 G3/2A/2 Bd e2|
A2B3/2d/2 e2d3/2e/2|g2A2B3/2A/2 G2|
g2a3/2g/2 e2e/2d/2B|A3/2d/2 B/2e3/2 A4:|
